!! 00048] TT[KA
!! NN
!!!OTL: Mama niang ni hao hutu
!!!ARE: Asia, China,ÿLiaoning, Haicheng
!! Ethnic Group: Han
!! III, 247
!!!SCT: C0293
!!!YEM: Copyright 1995, estate of Helmut Schaffrath.
**kern
*ICvox
*Ivox
*M4/4
*k[b-]
*F:
{8.dd
16ff
8dd
8cc
4.a
8cc
=1
8.dd
16ff
8dd
8cc
2a}
=2
{4a
4ff
4dd
4cc
=3
8cc
4f
8g
2a}
=4
{8.a
16g
8a
8cc
8dd
8ff
8dd
8cc
=5
8a
8a
8cc
8a
4g
4f}
=6
{8.f
16g
8a
8cc
8g
8a
4e
=7
4.d
8c
2d}
=8
{8f
8d
8f
8g
8a
8cc
8a
8g
=9
8.f
16g
8a
8cc
4g
4e
=10
4.d
8c
2d}
==
!!!AGN: Xiaodiao, Shidiao, Mama hutu diao. Geming lishi minge]
!! Sehr bekannt. Urspruenglich beklagt sich darin die Tochter, warum
!!    die Mutter ihr noch keinen Mann ausgewaehlt hat. Hier werden nun
!!    Gleichberechtigung und Ehefreiheit gefordert. Text also sehr
!!    beliebt.
!!!ONB: ESAC (Essen Associative Code) Database: CHINA
!!!AMT: simple quadruple
!!!AIN: vox
!!!EED: Helmut Schaffrath
!!!EEV: 1.0
*-
